X: 142101
T: HARVEST HOME
Q: "Hornpipe."
R:  Hornpipe.
%R: hornpipe, reel
B: James Kerr "Merry Melodies" v.1 p.42 s.1 #1
Z: 2016 John Chambers <jc:trillian.mit.edu>
N: There's a 4-dot partial repeat symbol at the beginning.
M: C
L: 1/8
K: D
uA2 |\
DAFA DAFA | defe dcBA | eAfA gAfA | (3efd (cB) AGFE |\
DAFA DAFA | defe dcBA | eAfA gece | d2f2d2 :|
(cd) |\
eAAA fAAA | gAAA fAAA | eAfA gAfA | (3efd (cB) AGFE |\
DAFA DAFA | defe dcBA | eAfA gece | d2d2d2 |]
(cd) |\
eAAA fAAA | gAAA fAAA | eAfA gAfA | (3efd (3cdB (3ABG (3FGE |\
Dddd cdec | Addd cdef | gage cABc | d2[f2A2]d2 H|]

%%sep 1 1 500
%%sep 1 1 500

